X:1
T:Title
%%score { ( 1 3 ) | ( 2 4 ) }
L:1/8
M:4/4
K:G
V:1 treble nm="Grand Piano"
V:3 treble 
V:2 bass 
V:4 bass 
V:1
 z4 z2[Q:1/4=100] GA | B2 B>B c2 B>B | [EA]2 [EG]2 [CE]2 [EG]E | D2 G>A B2 d>e | d2 B2 z CGA | %5
 B2 B>B c2 B>[GB] | [EA]2 [EG]2 [CE]2 [Ge]2 | [DGd]2 [B,G]>[B,G] [DGB]2 [CFA]2 |[M:3/4] [B,G]6 | %9
[M:1/4] Bc |[M:4/4] d2 B>B E-[EG] E2 | B,2 B,2 [B,G]2 Bc | d2 [A^d]>[Ad] [Ge]2 ^c2 | %13
 d2- [Fd-]2 [Gd]2 cc | B2 B>B d2 BB |[M:9/8] c2 d- d/d/ e2- e [Ge]2 | %16
[M:4/4] [DGd]2 [B,G]>[B,G] [DGB]2 [CFA]2 |[M:3/4] [B,G]6 |] %18
V:2
 z4 z2 [G,B,][G,C] | [G,D]2 [G,D]>[G,D] [G,E]2 [G,D]>[G,D] | [C,C]2 [C,C]2 [C,G,]2 [C,G,][C,G,C] | %3
 [G,B,]2[K:treble] [G,B,D]>[G,CD] [G,DG]2 [G,B,G]>[G,CG] | %4
 [G,B,G]2 [G,DG]2[K:bass] .[D,D]2 [G,B,][K:treble][G,CG] | %5
 [G,DG]2 [G,DG]>[G,DG] [G,EG]2 [G,DG]>[K:bass][F,D] | [C,C]2 [C,C]2 [C,G,]2 [C,C]2 | %7
 B,,2 E,>E, D,2 D,2 |[M:3/4] G,,6 |[M:1/4] [G,D]2 | %10
[M:4/4][K:treble] [G,B,G]2 [G,DG]>[G,DG][K:bass] [C,C]2 [C,G,C]2 | z4 z2 [G,D]2 | %12
 [G,B,G]2 [F,B,]>[F,B,] [E,B,]2 [A,G]2 | [D,A,]2[K:treble] [CD]2 [B,D]2 [A,DF][A,DF] | %14
 [G,DG]2 [G,DG]>[G,DG] [G,B,G]2 [G,DG][G,DG] | %15
[M:9/8] [A,DF]2 [B,DG]- [B,DG]/[B,DG]/ [CG]2- [CG][K:bass] [C,C]2 |[M:4/4] B,,2 E,>E, D,2 D,2 | %17
[M:3/4] G,,6 |] %18
V:3
 x8 | x8 | x8 | x8 | z4 [FA]2 z2 | x8 | x8 | x8 |[M:3/4] x6 |[M:1/4] x2 |[M:4/4] z4 .A2 z2 | %11
 D4 z4 | x8 | F2 z2 z4 | x8 |[M:9/8] x9 |[M:4/4] x8 |[M:3/4] x6 |] %18
V:4
 x8 | x8 | x8 | x2[K:treble] x6 | x4[K:bass] x3[K:treble] x | x15/2[K:bass] x/ | x8 | x8 | %8
[M:3/4] x6 |[M:1/4] z A, |[M:4/4][K:treble] x4[K:bass] x4 | [G,,G,]2 [G,,G,]2 [G,,G,]2 z A, | x8 | %13
 x2[K:treble] x6 | x8 |[M:9/8] x7[K:bass] x2 |[M:4/4] x8 |[M:3/4] x6 |] %18

